packages/tokens/icons/home/size24Px.svg

<svg viewBox="0 0 24 24" fill="none" xmlns="http://www.w3.org/2000/svg" width="1em" height="1em"><path d="M19.0588 14.25H18.5588V14.75V20.25C18.5588 21.0784 17.8873 21.75 17.0588 21.75H15.0588C14.2304 21.75 13.5588 21.0784 13.5588 20.25V17.8603C13.5588 16.9019 12.7819 16.125 11.8235 16.125C10.8652 16.125 10.0882 16.9019 10.0882 17.8603V20.25C10.0882 21.0784 9.41666 21.75 8.58824 21.75H6.94118C6.11275 21.75 5.44118 21.0784 5.44118 20.25V14.75V14.25H4.94118H4.62885C3.31429 14.25 2.6356 12.6792 3.53655 11.722L10.9077 3.89011C11.5 3.26084 12.5 3.26084 13.0923 3.89011L20.4634 11.722C21.3644 12.6792 20.6857 14.25 19.3711 14.25H19.0588Z" stroke="currentColor"/></svg>

<svg xmlns="http://www.w3.org/2000/svg" fill="none" viewBox="0 0 24 24" width="1em" height="1em"><path stroke="currentColor" d="M19.059 14.25h-.5v6a1.5 1.5 0 0 1-1.5 1.5h-2a1.5 1.5 0 0 1-1.5-1.5v-2.39a1.735 1.735 0 1 0-3.47 0v2.39a1.5 1.5 0 0 1-1.5 1.5H6.94a1.5 1.5 0 0 1-1.5-1.5v-6h-.81c-1.315 0-1.993-1.57-1.092-2.528l7.37-7.832a1.5 1.5 0 0 1 2.185 0l7.371 7.832c.901.957.223 2.528-1.092 2.528h-.312Z"/></svg>
